X: 33
T:Auretti's Dutch Skipper
N:England c.1756
M:6/8
L:1/8
K:A % transposed from Bb
E|"A"AEA cBA|"E"BGE d3|"A"cBA "E"GBG|"A"AEC "(Eb)"A,2 E|
"A"AEA cBA|"E"BGE Bcd|"A"cBA "E"EAG|"A"A3 A2:|
|:E|"A"Ace ecA|"D"Bdf f2 E|"A"Ace ecA|"E"GBB B2 E|
"A"Ace ecA|"D"Bag a2 d|"A"cBA "E"EAG|"A"AEC A,2 z:|
